X:2014
T:Bonaparte Crossing The Alps
T:Napoleon Crossing the Rhine
R:Hornpipe
C:Trad.
O:Scotland
Z:Paul Hardy's Session Tunebook 2015 (see www.paulhardy.net). Creative Commons cc by-nc-sa licenced.
M:4/4
L:1/8
Q:1/4=120
K:Ador
EG|"Am"A2 AB AGE2|"C"cdec "G"d2 eg|"Am"aged cded|"C"cAGE "G"G2 cB|
"Am"A2 AB AGE2|"C"cdec "G"d2 eg|"Am"aged "C"cAGE|"Am"A2 BG A2:|
|:eg|"Am"aged "C"cdeg|"Am"agec "G"d2 eg|"Am"aged cded|"C"cAGE "G"G2 EG|
"Am"A2 AB AGEG|"C"cdec "G"d2 eg|"Am"aged "C"cABG|"Am"A2 (3cBG A2:|

